X:1
T:St. Asaph (Giornovichi), CMD
T:St. Asaph (Giornovichi), CMD
T:From Giovanni Maria Giornovichi (1745-1804)
T:Public Domain Courtesy of the Cyber Hymnal™
C:From Giovanni Maria Giornovichi (1745-1804)
Z:Public Domain
Z:Courtesy of the Cyber Hymnal™
%%score ( 1 2 ) ( 3 4 )
L:1/8
Q:1/4=108
M:4/4
K:G
V:1 treble 
V:2 treble 
V:3 bass 
V:4 bass 
V:1
 D2 | [DG]2 [DG]2 [FA]2 [FA]2 | [GB]2 (dc) [GB]2 [Gd]2 | [Gc]2 [Gc]2 [GB]2 [GB]2 | [FA]6 D2 | %5
 [DG]2 [DG]2 [EA]2 [FA]2 | [GB]2 (Bc) [Gd]2 [Ed]2 | (dc) [GB]2 [GB]2 [FA]2 | G6 [GB]2 | %9
 [Ec]2 [Ec]2 [FA]2 [FA]2 | [Gd]2 (Bc) [Gd]2 [Gd]2 | [Ee]2 [Ed]2 [Ec]2 [EB]2 | (B4 A2) D2 | %13
 [DG]2 [DG]2 [EA]2 [FA]2 | [GB]2 (dc) [GB]2 [Gd]2 | [Gc]2 [GB]2 [GB]2 [FA]2 | G6 |] %17
V:2
 D2 | x8 | x2 G2 x4 | x8 | x6 D2 | x8 | x2 G2 x4 | E2 x6 | G6 x2 | x8 | x2 G2 x4 | x8 | D6 D2 | %13
 x8 | x2 G2 x4 | x8 | G6 |] %17
V:3
 [G,B,]2 | [G,B,]2 [G,B,]2 [D,D]2 [D,D]2 | [G,D]2 D2 [G,D]2 [B,,D]2 | [C,E]2 [C,E]2 [G,D]2 [G,D]2 | %4
 [D,D]6 F,2 | [B,,G,]2 [B,,B,]2 [A,,C]2 [A,,C]2 | [G,,D]2 (DC) [G,B,]2 [B,,G,]2 | %7
 [C,G,]2 [^C,E]2 [D,D]2 [D,D]2 | [G,,B,]6 [G,D]2 | [A,C]2 [A,C]2 [CD]2 [CD]2 | %10
 [B,D]2 ([B,D][A,C]) [G,B,]2 [B,,D]2 | [C,C]2 [C,B,]2 [C,A,]2 [^C,G,]2 | (G,4 F,2) F,2 | %13
 [B,,G,]2 [B,,B,]2 [A,,C]2 [A,,C]2 | [G,,D]2 (B,A,) G,2 [B,,D]2 | [C,E]2 [^C,E]2 [D,D]2 [D,^C]2 | %16
 [G,,B,]6 |] %17
V:4
 x2 | x8 | x2 (B,A,) x4 | x8 | x6 (D,C,) | x8 | x2 G,,2 x4 | x8 | x8 | x8 | x8 | x8 | D,6 (D,C,) | %13
 x8 | x2 D,2 G,2 x2 | x8 | x6 |] %17

